X: 093
M: C
L: 1/8
K: Gm
|:\
dcBA G2B2 | A2c2 B2d2 | c2e2 d2B2 | A2G2 ^F2D2 |\
dcBA B2d2 | c2e2 d2g2 | f2e2 d2c2 | B4 B,4 :|
|:\
dc=Bc c2C2 | cBAc B2d2 | c2B2 A2G2 | A4 D4 |\

